X: 1
T: Rolling Down The Hill
T: The Old Wheels Of The World
M: 4/4
L: 1/8
R: reel
D: Adrian Barker &amp; Ben Stephenson - &quot;Undertones&quot;
K: Ador
eAcA eAcA|~G3F EFGB|A3B cBcd|eaag egdg:|
|:eaag eaaf|efgf efge|afge dA (3Bcd|eaag egdg:|
